images/satisfaction-cliente.svg

<svg width="50" height="50" viewBox="0 0 50 50" fill="none" xmlns="http://www.w3.org/2000/svg">
<path d="M19.6802 2.13001C19.6802 13.73 29.0802 23.13 40.6802 23.13C43.5202 23.13 46.2202 22.56 48.6902 21.54V1.13H19.7302C19.7202 1.46 19.6802 1.79 19.6802 2.13001Z" fill="#1FBEC8"/>
<path d="M46.6101 21.39C46.2001 20.98 45.6301 20.71 45.0101 20.68C43.5901 20.6 42.4401 21.83 42.4401 23.25V31.08C42.3401 30.64 42.1201 30.22 41.7801 29.89C40.8301 28.93 39.2801 28.94 38.3201 29.89L33.2201 34.99C32.1701 36.04 31.5901 37.46 31.5901 38.93V45.15H39.9001V42.26L46.2901 35.88C46.9601 35.21 47.3401 34.3 47.3401 33.36V23.12C47.3201 22.45 47.0501 21.84 46.6101 21.39Z" fill="white"/>
<path d="M41.9001 45.14H29.9001V48.12H41.9001V45.14Z" fill="#1FBEC8"/>
<path d="M16.1601 34.98L11.0601 29.88C10.1101 28.93 8.56006 28.92 7.60006 29.88C7.26006 30.22 7.04006 30.64 6.94006 31.07V23.24C6.94006 21.82 5.78006 20.59 4.37006 20.67C3.75006 20.7 3.18006 20.97 2.77006 21.38C2.33006 21.82 2.06006 22.44 2.06006 23.11V33.34C2.06006 34.29 2.44006 35.19 3.11006 35.86L9.50006 42.24V45.13H17.8101V38.91C17.8001 37.44 17.2101 36.03 16.1601 34.98Z" fill="white"/>
<path d="M7.47607 48.1278L19.4761 48.1278L19.4761 45.1478L7.47607 45.1478L7.47607 48.1278Z" fill="#1FBEC8"/>
<path d="M24.6901 30.31C32.4718 30.31 38.7801 24.0017 38.7801 16.22C38.7801 8.43831 32.4718 2.13 24.6901 2.13C16.9084 2.13 10.6001 8.43831 10.6001 16.22C10.6001 24.0017 16.9084 30.31 24.6901 30.31Z" fill="white"/>
<path d="M24.6901 26.31C19.1301 26.31 14.6001 21.78 14.6001 16.22C14.6001 10.66 19.1201 6.12 24.6901 6.12C30.2601 6.12 34.7801 10.65 34.7801 16.21C34.7801 21.77 30.2501 26.31 24.6901 26.31Z" fill="#1FBEC8"/>
<path d="M47.1402 20.86C46.5802 20.3 45.8302 19.96 45.0502 19.93C44.2002 19.89 43.3802 20.19 42.7402 20.79C42.0702 21.43 41.6802 22.32 41.6802 23.25V28.87C41.1902 28.58 40.6302 28.42 40.0502 28.42C39.2002 28.42 38.3902 28.75 37.7902 29.36L32.6902 34.46C31.4902 35.66 30.8402 37.24 30.8402 38.94V44.41H29.9102C29.5002 44.41 29.1602 44.75 29.1602 45.16V48.14C29.1602 48.55 29.5002 48.89 29.9102 48.89H41.9102C42.3202 48.89 42.6602 48.55 42.6602 48.14V45.16C42.6602 44.75 42.3202 44.41 41.9102 44.41H40.6502V42.58L46.8102 36.42C47.6302 35.61 48.0802 34.52 48.0802 33.37V23.12C48.0802 22.27 47.7502 21.47 47.1402 20.86ZM41.1602 47.37H30.6602V45.89H31.5902H39.9002H41.1602V47.37ZM46.5802 33.35C46.5802 34.1 46.2902 34.81 45.7502 35.34L39.3702 41.72C39.2302 41.86 39.1502 42.05 39.1502 42.25V44.39H32.3402V38.92C32.3402 37.63 32.8402 36.42 33.7602 35.51L38.8602 30.41C39.1802 30.09 39.5802 29.93 40.0602 29.91C40.5102 29.91 40.9302 30.09 41.2602 30.41C41.4502 30.6 41.5702 30.83 41.6602 31.08C41.6002 31.25 41.5202 31.42 41.4002 31.58C41.3602 31.64 41.3102 31.69 41.2102 31.8L37.4102 36.44C37.1502 36.76 37.1902 37.23 37.5102 37.5C37.6502 37.61 37.8202 37.67 37.9902 37.67C38.2102 37.67 38.4202 37.58 38.5702 37.4L42.3202 32.82C42.4302 32.72 42.5202 32.6 42.6102 32.49C42.8702 32.15 43.0402 31.77 43.1402 31.37C43.1502 31.35 43.1502 31.34 43.1602 31.32C43.1702 31.29 43.1802 31.26 43.1902 31.23C43.2002 31.21 43.1902 31.18 43.1902 31.16C43.1902 31.13 43.2102 31.1 43.2102 31.08V23.25C43.2102 22.74 43.4202 22.24 43.8002 21.88C44.1302 21.56 44.5702 21.41 45.0002 21.43C45.4202 21.45 45.8102 21.63 46.1002 21.92C46.4202 22.25 46.6002 22.67 46.6002 23.12V33.35H46.5802Z" fill="#1C2E5C"/>
<path d="M19.4801 44.39H18.5501V38.92C18.5501 37.23 17.8901 35.64 16.7001 34.44L11.6001 29.34C11.0001 28.74 10.1901 28.4 9.34006 28.4C9.34006 28.4 9.34006 28.4 9.33006 28.4C8.75006 28.4 8.19006 28.56 7.70006 28.85V23.24C7.70006 22.32 7.31006 21.42 6.64006 20.78C6.00006 20.18 5.18006 19.86 4.34006 19.92C3.55006 19.96 2.81006 20.29 2.24006 20.86C1.64006 21.47 1.31006 22.27 1.31006 23.12V33.35C1.31006 34.5 1.76006 35.59 2.57006 36.4L8.74006 42.56V44.39H7.47006C7.06006 44.39 6.72006 44.73 6.72006 45.14V48.12C6.72006 48.53 7.06006 48.87 7.47006 48.87H19.4701C19.8801 48.87 20.2201 48.53 20.2201 48.12V45.14C20.2301 44.73 19.8901 44.39 19.4801 44.39ZM10.0201 41.73L3.64006 35.35C3.11006 34.82 2.81006 34.11 2.81006 33.36V23.12C2.81006 22.67 2.99006 22.24 3.30006 21.92C3.60006 21.62 3.99006 21.44 4.41006 21.42C4.85006 21.39 5.27006 21.56 5.61006 21.87C5.98006 22.22 6.20006 22.72 6.20006 23.24V31.07C6.20006 31.1 6.21006 31.12 6.22006 31.15C6.22006 31.17 6.22006 31.2 6.22006 31.22C6.23006 31.25 6.24006 31.28 6.25006 31.31C6.25006 31.32 6.26006 31.34 6.26006 31.35C6.36006 31.75 6.53006 32.13 6.79006 32.47C6.88006 32.59 6.98006 32.7 7.03006 32.75L10.8301 37.39C10.9801 37.57 11.1901 37.66 11.4101 37.66C11.5801 37.66 11.7501 37.6 11.8901 37.49C12.2101 37.23 12.2601 36.76 11.9901 36.43L8.14006 31.73C8.09006 31.68 8.04006 31.62 7.99006 31.56C7.87006 31.4 7.79006 31.23 7.74006 31.06C7.82006 30.81 7.95006 30.58 8.14006 30.38C8.46006 30.06 8.88006 29.88 9.33006 29.88C9.78006 29.88 10.2101 30.06 10.5301 30.38L15.6301 35.48C16.5401 36.39 17.0401 37.61 17.0401 38.89V44.36H10.2301V42.22C10.2401 42.06 10.1601 41.87 10.0201 41.73ZM18.7301 47.37H8.22006V45.89H9.48006H17.7901H18.7201V47.37H18.7301Z" fill="#1C2E5C"/>
<path d="M11.8201 10.42C11.9301 10.47 12.0501 10.5 12.1701 10.5C12.4501 10.5 12.7001 10.35 12.8401 10.1C13.0201 9.72999 12.8801 9.26999 12.5101 9.08999C12.1501 8.89999 11.6801 9.04999 11.5001 9.40999V9.41999C11.4101 9.58999 11.3901 9.78999 11.4501 9.97999C11.5101 10.17 11.6401 10.33 11.8201 10.42Z" fill="#1C2E5C"/>
<path d="M39.5301 16.21C39.5301 8.02999 32.8801 1.37 24.6901 1.37C19.9001 1.37 15.3801 3.7 12.6001 7.61C12.3601 7.95 12.4401 8.42 12.7701 8.66C13.1001 8.89 13.5901 8.80999 13.8201 8.47999C16.3301 4.96999 20.3901 2.86999 24.6901 2.86999C32.0401 2.88999 38.0201 8.86999 38.0301 16.21C38.0201 23.56 32.0401 29.54 24.6901 29.56C17.3501 29.54 11.3701 23.56 11.3501 16.21C11.3501 14.72 11.6001 13.24 12.0901 11.83C12.2201 11.44 12.0101 11.02 11.6201 10.88C11.2501 10.75 10.8001 10.96 10.6701 11.34C10.1301 12.9 9.8501 14.54 9.8501 16.21C9.8501 24.4 16.5101 31.05 24.6901 31.06C32.8801 31.05 39.5301 24.4 39.5301 16.21Z" fill="#1C2E5C"/>
<path d="M24.6901 27.06C30.6701 27.06 35.5301 22.2 35.5301 16.22C35.5301 10.24 30.6701 5.37 24.6901 5.37C18.7101 5.37 13.8501 10.23 13.8501 16.21C13.8501 22.19 18.7101 27.06 24.6901 27.06ZM24.6901 6.87C29.8401 6.87 34.0301 11.06 34.0301 16.21C34.0301 21.36 29.8401 25.55 24.6901 25.55C19.5401 25.55 15.3501 21.36 15.3501 16.21C15.3501 11.06 19.5401 6.87 24.6901 6.87Z" fill="#1C2E5C"/>
<path d="M24.69 19.86C23.89 19.86 23.24 19.21 23.24 18.41C23.24 18 22.9 17.66 22.49 17.66C22.08 17.66 21.74 18 21.74 18.41C21.74 19.77 22.68 20.91 23.94 21.25V21.74C23.94 22.15 24.28 22.49 24.69 22.49C25.1 22.49 25.44 22.15 25.44 21.74V21.25C26.7 20.92 27.64 19.78 27.64 18.41C27.64 16.78 26.32 15.46 24.69 15.46C23.89 15.46 23.24 14.81 23.24 14.01C23.24 13.21 23.89 12.56 24.69 12.56C25.49 12.56 26.14 13.21 26.14 14.01C26.14 14.42 26.48 14.76 26.89 14.76C27.3 14.76 27.64 14.42 27.64 14.01C27.64 12.65 26.7 11.51 25.44 11.17V10.68C25.44 10.27 25.1 9.92999 24.69 9.92999C24.28 9.92999 23.94 10.27 23.94 10.68V11.17C22.68 11.5 21.74 12.64 21.74 14.01C21.74 15.64 23.06 16.96 24.69 16.96C25.49 16.96 26.14 17.61 26.14 18.41C26.14 19.21 25.49 19.86 24.69 19.86Z" fill="#1C2E5C"/>
</svg>

<svg width="50" height="50" fill="none" xmlns="http://www.w3.org/2000/svg"><path d="M19.68 2.13c0 11.6 9.4 21 21 21 2.84 0 5.54-.57 8.01-1.59V1.13H19.73c-.01.33-.05.66-.05 1z" fill="#1FBEC8"/><path d="M46.61 21.39c-.41-.41-.98-.68-1.6-.71-1.42-.08-2.57 1.15-2.57 2.57v7.83c-.1-.44-.32-.86-.66-1.19-.95-.96-2.5-.95-3.46 0l-5.1 5.1a5.571 5.571 0 00-1.63 3.94v6.22h8.31v-2.89l6.39-6.38c.67-.67 1.05-1.58 1.05-2.52V23.12c-.02-.67-.29-1.28-.73-1.73z" fill="#fff"/><path d="M41.9 45.14h-12v2.98h12v-2.98z" fill="#1FBEC8"/><path d="M16.16 34.98l-5.1-5.1c-.95-.95-2.5-.96-3.46 0-.34.34-.56.76-.66 1.19v-7.83c0-1.42-1.16-2.65-2.57-2.57-.62.03-1.19.3-1.6.71a2.45 2.45 0 00-.71 1.73v10.23c0 .95.38 1.85 1.05 2.52l6.39 6.38v2.89h8.31v-6.22a5.61 5.61 0 00-1.65-3.93z" fill="#fff"/><path d="M7.476 48.128h12v-2.98h-12v2.98z" fill="#1FBEC8"/><path d="M24.69 30.31c7.782 0 14.09-6.308 14.09-14.09S32.472 2.13 24.69 2.13 10.6 8.438 10.6 16.22s6.308 14.09 14.09 14.09z" fill="#fff"/><path d="M24.69 26.31c-5.56 0-10.09-4.53-10.09-10.09s4.52-10.1 10.09-10.1 10.09 4.53 10.09 10.09-4.53 10.1-10.09 10.1z" fill="#1FBEC8"/><path d="M47.14 20.86a3.148 3.148 0 00-4.4-.07c-.67.64-1.06 1.53-1.06 2.46v5.62c-.49-.29-1.05-.45-1.63-.45-.85 0-1.66.33-2.26.94l-5.1 5.1a6.268 6.268 0 00-1.85 4.48v5.47h-.93c-.41 0-.75.34-.75.75v2.98c0 .41.34.75.75.75h12c.41 0 .75-.34.75-.75v-2.98c0-.41-.34-.75-.75-.75h-1.26v-1.83l6.16-6.16c.82-.81 1.27-1.9 1.27-3.05V23.12c0-.85-.33-1.65-.94-2.26zm-5.98 26.51h-10.5v-1.48h10.5v1.48zm5.42-14.02c0 .75-.29 1.46-.83 1.99l-6.38 6.38a.75.75 0 00-.22.53v2.14h-6.81v-5.47c0-1.29.5-2.5 1.42-3.41l5.1-5.1c.32-.32.72-.48 1.2-.5.45 0 .87.18 1.2.5.19.19.31.42.4.67-.06.17-.14.34-.26.5-.04.06-.09.11-.19.22l-3.8 4.64c-.26.32-.22.79.1 1.06.14.11.31.17.48.17.22 0 .43-.09.58-.27l3.75-4.58c.11-.1.2-.22.29-.33.26-.34.43-.72.53-1.12.01-.02.01-.03.02-.05l.03-.09c.01-.02 0-.05 0-.07 0-.03.02-.06.02-.08v-7.83c0-.51.21-1.01.59-1.37.33-.32.77-.47 1.2-.45.42.02.81.2 1.1.49.32.33.5.75.5 1.2v10.23h-.02zM19.48 44.39h-.93v-5.47c0-1.69-.66-3.28-1.85-4.48l-5.1-5.1c-.6-.6-1.41-.94-2.26-.94h-.01c-.58 0-1.14.16-1.63.45v-5.61c0-.92-.39-1.82-1.06-2.46-.64-.6-1.46-.92-2.3-.86a3.202 3.202 0 00-3.03 3.2v10.23c0 1.15.45 2.24 1.26 3.05l6.17 6.16v1.83H7.47c-.41 0-.75.34-.75.75v2.98c0 .41.34.75.75.75h12c.41 0 .75-.34.75-.75v-2.98a.74.74 0 00-.74-.75zm-9.46-2.66l-6.38-6.38c-.53-.53-.83-1.24-.83-1.99V23.12c0-.45.18-.88.49-1.2.3-.3.69-.48 1.11-.5.44-.03.86.14 1.2.45.37.35.59.85.59 1.37v7.83c0 .03.01.05.02.08v.07l.03.09c0 .01.01.03.01.04a3.037 3.037 0 00.77 1.4l3.8 4.64c.15.18.36.27.58.27a.747.747 0 00.58-1.23l-3.85-4.7a1.564 1.564 0 01-.4-.67c.08-.25.21-.48.4-.68.32-.32.74-.5 1.19-.5.45 0 .88.18 1.2.5l5.1 5.1c.91.91 1.41 2.13 1.41 3.41v5.47h-6.81v-2.14a.675.675 0 00-.21-.49zm8.71 5.64H8.22v-1.48h10.5v1.48h.01zM11.82 10.42c.11.05.23.08.35.08.28 0 .53-.15.67-.4.18-.37.04-.83-.33-1.01a.755.755 0 00-1.01.32v.01c-.09.17-.11.37-.05.56.06.19.19.35.37.44z" fill="#1C2E5C"/><path d="M39.53 16.21c0-8.18-6.65-14.84-14.84-14.84-4.79 0-9.31 2.33-12.09 6.24a.76.76 0 00.17 1.05c.33.23.82.15 1.05-.18 2.51-3.51 6.57-5.61 10.87-5.61 7.35.02 13.33 6 13.34 13.34-.01 7.35-5.99 13.33-13.34 13.35-7.34-.02-13.32-6-13.34-13.35 0-1.49.25-2.97.74-4.38a.757.757 0 00-.47-.95.765.765 0 00-.95.46c-.54 1.56-.82 3.2-.82 4.87 0 8.19 6.66 14.84 14.84 14.85 8.19-.01 14.84-6.66 14.84-14.85z" fill="#1C2E5C"/><path d="M24.69 27.06c5.98 0 10.84-4.86 10.84-10.84 0-5.98-4.86-10.85-10.84-10.85-5.98 0-10.84 4.86-10.84 10.84 0 5.98 4.86 10.85 10.84 10.85zm0-20.19c5.15 0 9.34 4.19 9.34 9.34 0 5.15-4.19 9.34-9.34 9.34-5.15 0-9.34-4.19-9.34-9.34 0-5.15 4.19-9.34 9.34-9.34z" fill="#1C2E5C"/><path d="M24.69 19.86c-.8 0-1.45-.65-1.45-1.45 0-.41-.34-.75-.75-.75s-.75.34-.75.75c0 1.36.94 2.5 2.2 2.84v.49c0 .41.34.75.75.75s.75-.34.75-.75v-.49a2.94 2.94 0 002.2-2.84c0-1.63-1.32-2.95-2.95-2.95a1.451 1.451 0 010-2.9c.8 0 1.45.65 1.45 1.45 0 .41.34.75.75.75s.75-.34.75-.75c0-1.36-.94-2.5-2.2-2.84v-.49c0-.41-.34-.75-.75-.75s-.75.34-.75.75v.49a2.94 2.94 0 00-2.2 2.84c0 1.63 1.32 2.95 2.95 2.95a1.451 1.451 0 010 2.9z" fill="#1C2E5C"/></svg>
